templates/_partials/svg/pinterest.svg

<?xml version="1.0" encoding="UTF-8"?>
<svg width="24px" height="24px" viewBox="0 0 24 24" version="1.1" xmlns="http://www.w3.org/2000/svg" xmlns:xlink="http://www.w3.org/1999/xlink">
    <!-- Generator: Sketch 64 (93537) - https://sketch.com -->
    <title>logo-pinterest</title>
    <desc>Created with Sketch.</desc>
    <g id="Boutique" stroke="none" stroke-width="1" fill="none" fill-rule="evenodd">
        <g id="Detail-Copy" transform="translate(-354.000000, -755.000000)" fill="#000000" fill-rule="nonzero">
            <g id="logo-pinterest" transform="translate(354.000000, 755.000000)">
                <path d="M12.0026786,0 C5.37589286,0 0.00267857143,5.36124722 0.00267857143,11.9732739 C0.00267857143,16.874833 2.95982143,21.0868597 7.18660714,22.9416481 C7.15446429,22.1077951 7.18125,21.1028953 7.39553571,20.1942094 C7.62589286,19.2213808 8.93839286,13.667706 8.93839286,13.667706 C8.93839286,13.667706 8.55267857,12.9033408 8.55267857,11.7755011 C8.55267857,10.0008909 9.58125,8.6752784 10.8669643,8.6752784 C11.9598214,8.6752784 12.4848214,9.49309577 12.4848214,10.4712695 C12.4848214,11.5670379 11.7830357,13.2026726 11.4241071,14.7207127 C11.1241071,15.9928731 12.0616071,17.0244989 13.3205357,17.0244989 C15.5919643,17.0244989 17.1241071,14.1113586 17.1241071,10.6583519 C17.1241071,8.03385301 15.3508929,6.07216036 12.13125,6.07216036 C8.49375,6.07216036 6.22232143,8.78218263 6.22232143,11.8075724 C6.22232143,12.8498886 6.53303571,13.5875278 7.01517857,14.1541203 C7.23482143,14.4160356 7.26696429,14.5229399 7.18660714,14.8222717 C7.12767857,15.0414254 6.99910714,15.5706013 6.94017857,15.7844098 C6.85982143,16.0890869 6.61339286,16.1959911 6.34017857,16.0837416 C4.66339286,15.3995546 3.88125,13.5714922 3.88125,11.5082405 C3.88125,8.10868597 6.75803571,4.03028953 12.4580357,4.03028953 C17.0383929,4.03028953 20.0544643,7.3389755 20.0544643,10.888196 C20.0544643,15.586637 17.4348214,19.0930958 13.5776786,19.0930958 C12.28125,19.0930958 11.0651786,18.3928731 10.6473214,17.6017817 C10.6473214,17.6017817 9.95089286,20.3599109 9.80089286,20.8944321 C9.54910714,21.8191537 9.05089286,22.7385301 8.59553571,23.4601336 C9.70011732,23.785267 10.8456776,23.9508682 11.9973214,23.9518931 C18.6241071,23.9518931 23.9973214,18.5906459 23.9973214,11.9786192 C23.9973214,5.36659243 18.6294643,0 12.0026786,0 Z" id="Path"></path>
            </g>
        </g>
    </g>
</svg>

<svg xmlns="http://www.w3.org/2000/svg" viewBox="0 0 24 24" aria-hidden="true"><path d="M12.003 0c-6.627 0-12 5.361-12 11.973 0 4.902 2.957 9.114 7.184 10.969-.033-.834-.006-1.84.209-2.748l1.542-6.526s-.385-.765-.385-1.892c0-1.775 1.028-3.1 2.314-3.1 1.093 0 1.618.817 1.618 1.795 0 1.096-.702 2.732-1.06 4.25-.3 1.272.637 2.303 1.896 2.303 2.271 0 3.803-2.913 3.803-6.366 0-2.624-1.773-4.586-4.993-4.586-3.637 0-5.909 2.71-5.909 5.736 0 1.042.311 1.78.793 2.346.22.262.252.369.172.668-.06.22-.188.749-.247.962-.08.305-.327.412-.6.3-1.677-.684-2.459-2.513-2.459-4.576 0-3.4 2.877-7.478 8.577-7.478 4.58 0 7.596 3.309 7.596 6.858 0 4.699-2.62 8.205-6.476 8.205-1.297 0-2.513-.7-2.93-1.491 0 0-.697 2.758-.847 3.292-.252.925-.75 1.845-1.205 2.566 1.104.325 2.25.49 3.401.492 6.627 0 12-5.361 12-11.973C23.997 5.367 18.63 0 12.003 0z" fill="#000" fill-rule="nonzero"/></svg>
